raw/symbols/mask.svg

<svg width="42" height="42" viewBox="0 0 42 42" fill="none" xmlns="http://www.w3.org/2000/svg">
<rect width="42" height="42" rx="21" fill="#2866ED"/>
<path fill-rule="evenodd" clip-rule="evenodd" d="M33.379 16.2909V23.1084H12.7473H11.8503C12.7473 27.2347 16.5148 30.2846 21 30.2846C24.6778 30.2846 27.9071 28.2215 29.4321 25.1716H33.4688V30.8229C33.4688 32.1684 32.3923 33.2448 30.9571 33.2448H11.0429C9.69739 33.2448 8.53125 32.1684 8.53125 30.8229V16.2909H33.379ZM27.0101 25.0819C25.6646 26.9656 23.5117 28.2215 21 28.2215C18.4883 28.2215 16.2457 26.9656 14.9899 25.0819H27.0101ZM15.7075 17.9056C13.734 17.9056 12.1194 19.3408 11.8503 21.1349H14.0031C14.2723 20.4173 14.9002 19.8791 15.7075 19.8791C16.5148 19.8791 17.1428 20.4173 17.4119 21.1349H19.475C19.2059 19.2511 17.5913 17.9056 15.7075 17.9056ZM26.2925 17.9056C24.319 17.9056 22.7044 19.3408 22.4353 21.1349H24.5881C24.8572 20.4173 25.4852 19.8791 26.2925 19.8791C27.0998 19.8791 27.7277 20.4173 27.9969 21.1349H30.1497C29.7909 19.2511 28.1763 17.9056 26.2925 17.9056ZM30.8674 8.75586C32.2129 8.75586 33.379 9.8323 33.379 11.1778V14.1381H8.53125V11.1778C8.53125 9.8323 9.60769 8.75586 11.0429 8.75586H30.8674Z" fill="#F3F3F3"/>
</svg>

<svg xmlns="http://www.w3.org/2000/svg" width="42" height="42" fill="none"><rect width="42" height="42" fill="#2866ED" rx="21"/><path fill="#F3F3F3" fill-rule="evenodd" d="M33.379 16.29v6.818H11.85c.897 4.127 4.665 7.177 9.15 7.177 3.678 0 6.907-2.064 8.432-5.113h4.037v5.65c0 1.346-1.077 2.423-2.512 2.423H11.043c-1.346 0-2.512-1.077-2.512-2.422V16.29H33.38Zm-6.369 8.792c-1.345 1.884-3.498 3.14-6.01 3.14-2.512 0-4.754-1.256-6.01-3.14h12.02Zm-11.303-7.176c-1.973 0-3.588 1.435-3.857 3.229h2.153c.27-.718.897-1.256 1.704-1.256.808 0 1.436.538 1.705 1.256h2.063c-.27-1.884-1.884-3.23-3.768-3.23Zm10.585 0c-1.973 0-3.588 1.435-3.857 3.229h2.153c.27-.718.897-1.256 1.704-1.256.808 0 1.436.538 1.705 1.256h2.153c-.36-1.884-1.974-3.23-3.857-3.23Zm4.575-9.15c1.346 0 2.512 1.076 2.512 2.422v2.96H8.531v-2.96c0-1.346 1.077-2.422 2.512-2.422h19.824Z" clip-rule="evenodd"/></svg>
